assets/icons/projects/2.svg

<svg width="85" height="85" viewBox="0 0 85 85" fill="none" xmlns="http://www.w3.org/2000/svg">
<g id="internet_2177382 1" clip-path="url(#clip0_1537_105)">
<path id="Vector" d="M79.7845 47.3443C82.3401 46.9315 84.2983 44.7107 84.2983 42.0403C84.2983 39.3698 82.3401 37.1491 79.7845 36.7363C78.7038 29.0629 75.2377 21.8325 69.9224 16.1566L76.0977 9.98132C76.9195 10.4919 77.8881 10.7877 78.9246 10.7877C81.8878 10.7877 84.2983 8.37712 84.2983 5.41399C84.2983 2.45085 81.8878 0.0402832 78.9246 0.0402832C75.9615 0.0402832 73.5509 2.45085 73.5509 5.41399C73.5509 6.4507 73.8467 7.41916 74.3573 8.24095L68.182 14.4163C62.5061 9.10096 55.2758 5.63481 47.6023 4.55413C47.1895 1.99853 44.9688 0.0402832 42.2983 0.0402832C39.6279 0.0402832 37.4071 1.99853 36.9944 4.55413C29.3208 5.63481 22.0906 9.10096 16.4147 14.4164L10.2394 8.24111C10.7499 7.41932 11.0459 6.4507 11.0459 5.41415C11.0457 2.45085 8.63518 0.0402832 5.67204 0.0402832C2.70891 0.0402832 0.29834 2.45085 0.29834 5.41399C0.29834 8.37712 2.70891 10.7877 5.67204 10.7877C6.70875 10.7877 7.67721 10.4919 8.49917 9.98116L14.6745 16.1565C9.35918 21.8324 5.89287 29.0628 4.81236 36.7361C2.25659 37.1491 0.29834 39.3698 0.29834 42.0403C0.29834 44.7107 2.25659 46.9315 4.81219 47.3443C5.89271 55.0176 9.35902 62.248 14.6743 67.9239L8.499 74.0992C7.67705 73.5887 6.70859 73.2927 5.67188 73.2927C2.70891 73.2929 0.29834 75.7036 0.29834 78.6666C0.29834 81.6295 2.70891 84.0403 5.67204 84.0403C8.63518 84.0403 11.0457 81.6297 11.0457 78.6666C11.0457 77.6299 10.7499 76.6614 10.2392 75.8396L16.4145 69.6643C22.0904 74.9796 29.3208 78.4459 36.9942 79.5264C37.4071 82.082 39.6279 84.0403 42.2983 84.0403C44.9688 84.0403 47.1895 82.082 47.6023 79.5264C55.2757 78.4458 62.5061 74.9796 68.182 69.6643L74.3573 75.8396C73.8467 76.6616 73.5509 77.63 73.5509 78.6666C73.5509 81.6297 75.9615 84.0403 78.9246 84.0403C81.8878 84.0403 84.2983 81.6297 84.2983 78.6666C84.2983 75.7034 81.8878 73.2929 78.9246 73.2929C77.8879 73.2929 76.9195 73.5887 76.0977 74.0992L69.9224 67.9239C75.2377 62.248 78.7038 55.0178 79.7845 47.3443ZM42.2983 73.2929C39.8929 73.2929 37.8516 74.8817 37.1684 77.065C21.8307 74.8277 9.51094 62.5077 7.27362 47.1702C9.45696 46.487 11.0457 44.4458 11.0457 42.0403C11.0457 39.6348 9.45696 37.5935 7.27362 36.9104C9.51094 21.5728 21.8309 9.25288 37.1684 7.01556C37.8516 9.19891 39.8929 10.7877 42.2983 10.7877C44.7038 10.7877 46.7451 9.19891 47.4282 7.01556C62.7658 9.25272 75.0859 21.5728 77.3231 36.9104C75.1397 37.5935 73.5509 39.6348 73.5509 42.0403C73.5509 44.4458 75.1397 46.487 77.3231 47.1702C75.0859 62.5077 62.7658 74.8279 47.4282 77.065C46.7451 74.8817 44.7038 73.2929 42.2983 73.2929ZM81.8374 42.0403C81.8374 43.6463 80.5306 44.953 78.9246 44.953C77.3186 44.953 76.0119 43.6463 76.0119 42.0403C76.0119 40.4343 77.3186 39.1275 78.9246 39.1275C80.5306 39.1275 81.8374 40.4343 81.8374 42.0403ZM78.9246 2.50122C80.5306 2.50122 81.8374 3.80798 81.8374 5.41399C81.8374 7.01999 80.5306 8.32675 78.9246 8.32675C77.3186 8.32675 76.0119 7.01999 76.0119 5.41399C76.0119 3.80798 77.3186 2.50122 78.9246 2.50122ZM42.2983 2.50122C43.9043 2.50122 45.2111 3.80798 45.2111 5.41399C45.2111 7.01999 43.9043 8.32675 42.2983 8.32675C40.6922 8.32675 39.3856 7.01999 39.3856 5.41399C39.3856 3.80798 40.6922 2.50122 42.2983 2.50122ZM2.75928 5.41399C2.75928 3.80798 4.06587 2.50122 5.67204 2.50122C7.27821 2.50122 8.58481 3.80798 8.58481 5.41399C8.58481 7.01999 7.27821 8.32675 5.67204 8.32675C4.06587 8.32675 2.75928 7.01999 2.75928 5.41399ZM2.75928 42.0403C2.75928 40.4343 4.06587 39.1275 5.67204 39.1275C7.27821 39.1275 8.58481 40.4343 8.58481 42.0403C8.58481 43.6463 7.27821 44.953 5.67204 44.953C4.06587 44.953 2.75928 43.6463 2.75928 42.0403ZM5.67204 81.5793C4.06587 81.5793 2.75928 80.2726 2.75928 78.6666C2.75928 77.0606 4.06587 75.7538 5.67204 75.7538C7.27821 75.7538 8.58481 77.0606 8.58481 78.6666C8.58481 80.2726 7.27821 81.5793 5.67204 81.5793ZM42.2983 81.5793C40.6922 81.5793 39.3856 80.2726 39.3856 78.6666C39.3856 77.0606 40.6922 75.7538 42.2983 75.7538C43.9043 75.7538 45.2111 77.0606 45.2111 78.6666C45.2111 80.2726 43.9043 81.5793 42.2983 81.5793ZM81.8374 78.6666C81.8374 80.2726 80.5306 81.5793 78.9246 81.5793C77.3186 81.5793 76.0119 80.2726 76.0119 78.6666C76.0119 77.0606 77.3186 75.7538 78.9246 75.7538C80.5306 75.7538 81.8374 77.0606 81.8374 78.6666Z" fill="#FCDAD8"/>
<path id="Vector_2" d="M66.4504 50.8963C65.8245 50.6322 65.1026 50.925 64.838 51.5509C64.0385 53.4432 63.0187 55.1936 61.8201 56.7829C59.8438 55.4737 57.6995 54.3756 55.438 53.5034C56.2303 50.3272 56.6869 46.8617 56.7719 43.2709H66.7237C66.6737 44.2764 66.5639 45.2778 66.393 46.2609C66.2767 46.9303 66.725 47.5675 67.3946 47.684C67.466 47.6963 67.5367 47.7022 67.6067 47.7022C68.1937 47.7022 68.7135 47.2805 68.8177 46.6822C69.0821 45.1599 69.2165 43.5982 69.2165 42.0404C69.2165 35.5725 66.9231 29.6309 63.1075 24.9841C63.0937 24.962 63.0804 24.9395 63.0648 24.918C63.0115 24.8437 62.9509 24.7777 62.8855 24.7192C57.9439 18.8547 50.5493 15.1218 42.2981 15.1218C32.9643 15.1218 24.4304 19.8499 19.4696 27.7697C19.1089 28.3458 19.2833 29.105 19.8593 29.4658C20.4355 29.8263 21.1948 29.652 21.5552 29.0762C21.9398 28.4622 22.3496 27.8713 22.7798 27.3004C24.7551 28.6084 26.8981 29.7057 29.158 30.5773C28.3658 33.7536 27.9092 37.2191 27.8242 40.8099H17.872C17.987 38.483 18.4277 36.2012 19.1884 34.0112C19.4114 33.3694 19.0719 32.668 18.4298 32.445C17.7885 32.2219 17.0868 32.5615 16.8638 33.2036C15.8788 36.0388 15.3794 39.012 15.3794 42.0404C15.3794 48.5082 17.6728 54.4502 21.4886 59.097C21.5024 59.1191 21.5157 59.1414 21.5311 59.1629C21.5844 59.2372 21.6449 59.303 21.7102 59.3618C26.6521 65.2262 34.0467 68.9591 42.2979 68.9591C53.1458 68.9591 62.883 62.5021 67.1049 52.5087C67.3693 51.8827 67.0763 51.1608 66.4504 50.8963ZM53.1057 52.6962C50.0466 51.7565 46.8162 51.2151 43.5286 51.1066V43.2709H54.3108C54.2289 46.5838 53.8171 49.7738 53.1057 52.6962ZM17.8713 43.2709H27.8242C27.9092 46.8617 28.3658 50.3273 29.158 53.5034C26.9018 54.3736 24.7621 55.4686 22.7894 56.7738C19.9167 52.9794 18.123 48.325 17.8713 43.2709ZM30.2856 43.2709H41.0676V51.1066C37.78 51.2151 34.5496 51.7565 31.4905 52.6962C30.7793 49.7738 30.3675 46.5838 30.2856 43.2709ZM41.0676 53.5684V66.3645C38.4582 65.8029 35.9909 63.4656 34.0164 59.6402C33.2963 58.2452 32.6752 56.7081 32.1545 55.0646C34.9975 54.1858 38.0041 53.6763 41.0676 53.5684ZM43.5286 66.3645V53.5684C46.5921 53.6763 49.5987 54.1858 52.4418 55.0648C51.921 56.7082 51.2999 58.2453 50.5798 59.6404C48.6053 63.4656 46.138 65.8029 43.5286 66.3645ZM50.5798 24.4406C51.2999 25.8356 51.921 27.3725 52.4418 29.016C49.5987 29.895 46.5921 30.4044 43.5286 30.5124V17.7163C46.138 18.2779 48.6053 20.6151 50.5798 24.4406ZM41.0676 17.7163V30.5124C38.0041 30.4044 34.9975 29.895 32.1545 29.016C32.6752 27.3725 33.2963 25.8354 34.0164 24.4404C35.9909 20.6151 38.4582 18.2779 41.0676 17.7163ZM43.5286 32.9741C46.8162 32.8657 50.0466 32.3243 53.1057 31.3845C53.8169 34.307 54.2289 37.497 54.3108 40.8099H43.5286V32.9741ZM66.7249 40.8099H56.772C56.687 37.2191 56.2305 33.7534 55.4382 30.5772C57.6944 29.707 59.8341 28.612 61.8068 27.3069C64.6795 31.1014 66.4732 35.7558 66.7249 40.8099ZM60.2127 25.409C58.5159 26.5086 56.688 27.4431 54.7649 28.2006C54.2064 26.4485 53.5387 24.8074 52.7666 23.3118C51.8214 21.4806 50.7567 19.9351 49.6015 18.6967C53.7083 19.9843 57.3513 22.3288 60.2127 25.409ZM24.3667 25.3984C27.282 22.2451 30.946 19.9435 35.0064 18.6844C33.8466 19.9249 32.7779 21.4743 31.8296 23.3118C31.0577 24.8076 30.3898 26.4485 29.8313 28.2007C27.902 27.4406 26.0684 26.5025 24.3667 25.3984ZM31.4905 31.3845C34.5496 32.3243 37.7798 32.8657 41.0676 32.9741V40.8099H30.2856C30.3675 37.497 30.7793 34.307 31.4905 31.3845ZM24.3835 58.6717C26.0804 57.5722 27.9082 56.6375 29.8313 55.88C30.3898 57.6321 31.0575 59.2732 31.8296 60.7689C32.7748 62.6002 33.8394 64.1457 34.9945 65.384C30.8879 64.0965 27.245 61.752 24.3835 58.6717ZM49.5981 65.3878C50.7545 64.1488 51.8205 62.6022 52.7666 60.7691C53.5385 59.2733 54.2064 57.6324 54.7649 55.8802C56.6943 56.6401 58.5278 57.5783 60.2295 58.6826C57.3361 61.8025 53.6727 64.1181 49.5981 65.3878Z" fill="#FCDAD8"/>
</g>
<defs>
<clipPath id="clip0_1537_105">
<rect width="84" height="84" fill="white" transform="translate(0.29834 0.0402832)"/>
</clipPath>
</defs>
</svg>

<svg xmlns="http://www.w3.org/2000/svg" width="85" height="85" fill="none" xmlns:v="https://vecta.io/nano"><g clip-path="url(#A)" fill="#fcdad8"><path d="M79.785 47.344c2.556-.413 4.514-2.634 4.514-5.304s-1.958-4.891-4.514-5.304c-1.081-7.673-4.547-14.904-9.862-20.58l6.175-6.175a5.34 5.34 0 0 0 2.827.806 5.38 5.38 0 0 0 5.374-5.374A5.38 5.38 0 0 0 78.925.04a5.38 5.38 0 0 0-5.374 5.374 5.34 5.34 0 0 0 .806 2.827l-6.175 6.175a37.96 37.96 0 0 0-20.58-9.862C47.19 1.999 44.969.04 42.298.04s-4.891 1.958-5.304 4.514a37.96 37.96 0 0 0-20.58 9.862l-6.175-6.175a5.34 5.34 0 0 0 .806-2.827A5.38 5.38 0 0 0 5.672.04 5.38 5.38 0 0 0 .298 5.414a5.38 5.38 0 0 0 5.374 5.374 5.34 5.34 0 0 0 2.827-.807l6.175 6.175c-5.315 5.676-8.782 12.906-9.862 20.58C2.257 37.149.298 39.37.298 42.04s1.958 4.891 4.514 5.304c1.081 7.673 4.547 14.904 9.862 20.58l-6.175 6.175a5.34 5.34 0 0 0-2.827-.806 5.38 5.38 0 0 0-5.374 5.374 5.38 5.38 0 0 0 5.374 5.374 5.38 5.38 0 0 0 5.374-5.374 5.34 5.34 0 0 0-.806-2.827l6.175-6.175c5.676 5.315 12.906 8.782 20.58 9.862.413 2.556 2.634 4.514 5.304 4.514s4.891-1.958 5.304-4.514c7.673-1.081 14.904-4.547 20.58-9.862l6.175 6.175a5.34 5.34 0 0 0-.806 2.827 5.38 5.38 0 0 0 5.374 5.374 5.38 5.38 0 0 0 5.374-5.374 5.38 5.38 0 0 0-5.374-5.374 5.34 5.34 0 0 0-2.827.806l-6.175-6.175a37.96 37.96 0 0 0 9.862-20.58zM42.298 73.293c-2.405 0-4.447 1.589-5.13 3.772C21.831 74.828 9.511 62.508 7.274 47.17c2.183-.683 3.772-2.724 3.772-5.13s-1.589-4.447-3.772-5.13C9.511 21.573 21.831 9.253 37.168 7.016c.683 2.183 2.724 3.772 5.13 3.772s4.447-1.589 5.13-3.772C62.766 9.253 75.086 21.573 77.323 36.91c-2.183.683-3.772 2.724-3.772 5.13s1.589 4.447 3.772 5.13c-2.237 15.337-14.557 27.658-29.895 29.895-.683-2.183-2.724-3.772-5.13-3.772zM81.837 42.04a2.92 2.92 0 0 1-2.913 2.913 2.92 2.92 0 0 1-2.913-2.913 2.92 2.92 0 0 1 2.913-2.913 2.92 2.92 0 0 1 2.913 2.913zM78.925 2.501a2.92 2.92 0 0 1 2.913 2.913 2.92 2.92 0 0 1-2.913 2.913 2.92 2.92 0 0 1-2.913-2.913 2.92 2.92 0 0 1 2.913-2.913zm-36.626 0a2.92 2.92 0 0 1 2.913 2.913 2.92 2.92 0 0 1-2.913 2.913 2.92 2.92 0 0 1-2.913-2.913 2.92 2.92 0 0 1 2.913-2.913zM2.759 5.414a2.92 2.92 0 0 1 2.913-2.913 2.92 2.92 0 0 1 2.913 2.913 2.92 2.92 0 0 1-2.913 2.913 2.92 2.92 0 0 1-2.913-2.913zm0 36.626a2.92 2.92 0 0 1 2.913-2.913 2.92 2.92 0 0 1 2.913 2.913 2.92 2.92 0 0 1-2.913 2.913 2.92 2.92 0 0 1-2.913-2.913zm2.913 39.539a2.92 2.92 0 0 1-2.913-2.913 2.92 2.92 0 0 1 2.913-2.913 2.92 2.92 0 0 1 2.913 2.913 2.92 2.92 0 0 1-2.913 2.913zm36.626 0a2.92 2.92 0 0 1-2.913-2.913 2.92 2.92 0 0 1 2.913-2.913 2.92 2.92 0 0 1 2.913 2.913 2.92 2.92 0 0 1-2.913 2.913zm39.539-2.913a2.92 2.92 0 0 1-2.913 2.913 2.92 2.92 0 0 1-2.913-2.913 2.92 2.92 0 0 1 2.913-2.913 2.92 2.92 0 0 1 2.913 2.913zM66.45 50.896a1.23 1.23 0 0 0-1.612.655c-.799 1.892-1.819 3.643-3.018 5.232-1.976-1.309-4.121-2.407-6.382-3.279.792-3.176 1.249-6.642 1.334-10.233h9.952a24.62 24.62 0 0 1-.331 2.99 1.23 1.23 0 0 0 1.002 1.423c.071.012.142.018.212.018a1.23 1.23 0 0 0 1.211-1.02 27.2 27.2 0 0 0 .399-4.642 26.79 26.79 0 0 0-6.109-17.056c-.014-.022-.027-.045-.043-.066-.053-.074-.114-.14-.179-.199-4.942-5.864-12.336-9.597-20.587-9.597-9.334 0-17.868 4.728-22.828 12.648a1.231 1.231 0 0 0 2.086 1.306c.385-.614.794-1.205 1.225-1.776a33.17 33.17 0 0 0 6.378 3.277c-.792 3.176-1.249 6.642-1.334 10.233h-9.952a24.37 24.37 0 0 1 1.316-6.799 1.231 1.231 0 1 0-2.325-.808 26.86 26.86 0 0 0-1.484 8.837c0 6.468 2.293 12.41 6.109 17.057.014.022.027.044.042.066a1.24 1.24 0 0 0 .179.199c4.942 5.864 12.337 9.597 20.588 9.597a26.88 26.88 0 0 0 24.807-16.45 1.23 1.23 0 0 0-.654-1.612zm-13.345 1.8a36.8 36.8 0 0 0-9.577-1.59V43.27H54.31c-.082 3.313-.494 6.503-1.205 9.425zm-35.234-9.425h9.953c.085 3.591.542 7.056 1.334 10.233-2.256.87-4.396 1.965-6.369 3.27-2.873-3.794-4.666-8.449-4.918-13.503zm12.414 0h10.782v7.836a36.8 36.8 0 0 0-9.577 1.59c-.711-2.922-1.123-6.112-1.205-9.425zm10.782 10.298v12.796c-2.609-.562-5.077-2.899-7.051-6.724-.72-1.395-1.341-2.932-1.862-4.576a34.32 34.32 0 0 1 8.913-1.496zm2.461 12.796V53.568a34.31 34.31 0 0 1 8.913 1.496c-.521 1.643-1.142 3.181-1.862 4.576-1.974 3.825-4.442 6.162-7.051 6.724zm7.051-41.924c.72 1.395 1.341 2.932 1.862 4.575-2.843.879-5.85 1.388-8.913 1.496V17.716c2.609.562 5.077 2.899 7.051 6.724zm-9.512-6.724v12.796c-3.063-.108-6.07-.617-8.913-1.496.521-1.643 1.142-3.181 1.862-4.576 1.975-3.825 4.442-6.163 7.051-6.724zm2.461 15.258c3.288-.108 6.518-.65 9.577-1.59.711 2.923 1.123 6.113 1.205 9.425H43.529v-7.836zm23.196 7.836h-9.953c-.085-3.591-.541-7.056-1.334-10.233 2.256-.87 4.396-1.965 6.369-3.27 2.873 3.795 4.666 8.449 4.918 13.503zM60.212 25.41c-1.697 1.1-3.525 2.034-5.448 2.792-.558-1.752-1.226-3.393-1.998-4.889-.945-1.831-2.01-3.377-3.165-4.615 4.107 1.288 7.75 3.632 10.611 6.712zm-35.846-.011c2.915-3.153 6.579-5.455 10.64-6.714-1.16 1.241-2.228 2.79-3.177 4.627-.772 1.496-1.44 3.137-1.998 4.889-1.929-.76-3.763-1.698-5.465-2.802zm7.124 5.986a36.79 36.79 0 0 0 9.577 1.59v7.836H30.286c.082-3.313.494-6.503 1.205-9.425zm-7.107 27.287c1.697-1.099 3.525-2.034 5.448-2.792.559 1.752 1.226 3.393 1.998 4.889.945 1.831 2.01 3.377 3.165 4.615-4.107-1.287-7.75-3.632-10.611-6.712zm25.215 6.716c1.156-1.239 2.222-2.786 3.168-4.619.772-1.496 1.44-3.137 1.998-4.889 1.929.76 3.763 1.698 5.465 2.802-2.893 3.12-6.557 5.435-10.631 6.705z"/></g><defs><clipPath id="A"><path fill="#fff" transform="translate(.298 .04)" d="M0 0h84v84H0z"/></clipPath></defs></svg>
